flaticon/hand-gestures/tap-49.svg

<svg xmlns="http://www.w3.org/2000/svg" width="32" height="32" viewBox="0 0 24 24">
    <path d="M 18.800781 2 C 18.800781 1.839844 18.730469 1.71875 18.613281 1.652344 L 17.078125 0.121094 C 16.921875 -0.0390625 16.679688 -0.0390625 16.519531 0.121094 C 16.359375 0.28125 16.359375 0.519531 16.519531 0.679688 L 17.441406 1.601562 L 5.601562 1.601562 C 5.359375 1.601562 5.199219 1.761719 5.199219 2 C 5.199219 2.238281 5.359375 2.398438 5.601562 2.398438 L 17.441406 2.398438 L 16.519531 3.320312 C 16.359375 3.480469 16.359375 3.71875 16.519531 3.878906 C 16.601562 3.960938 16.679688 4 16.800781 4 C 16.921875 4 17 3.960938 17.078125 3.878906 L 18.613281 2.347656 C 18.730469 2.28125 18.800781 2.160156 18.800781 2 Z M 18.800781 2"/>
    <path d="M 11.199219 3.199219 C 7.878906 3.199219 5.199219 5.878906 5.199219 9.199219 L 5.199219 18 C 5.199219 21.320312 7.878906 24 11.199219 24 C 14.519531 24 17.199219 21.320312 17.199219 18 L 17.199219 9.199219 C 17.199219 5.878906 14.519531 3.199219 11.199219 3.199219 Z M 16.398438 18 C 16.398438 20.878906 14.078125 23.199219 11.199219 23.199219 C 8.320312 23.199219 6 20.878906 6 18 L 6 9.199219 C 6 6.320312 8.320312 4 11.199219 4 C 14.078125 4 16.398438 6.320312 16.398438 9.199219 Z M 16.398438 18"/>
    <path d="M11.199219 4.800781C8.761719 4.800781 6.800781 6.761719 6.800781 9.199219L6.800781 13.601562 15.601562 13.601562 15.601562 9.199219C15.601562 6.761719 13.640625 4.800781 11.199219 4.800781zM14.800781 12.800781L7.601562 12.800781 7.601562 9.199219C7.601562 7.199219 9.199219 5.601562 11.199219 5.601562 13.199219 5.601562 14.800781 7.199219 14.800781 9.199219zM15.199219 16.398438L7.199219 16.398438C6.960938 16.398438 6.800781 16.558594 6.800781 16.800781 6.800781 17.039062 6.960938 17.199219 7.199219 17.199219L15.199219 17.199219C15.441406 17.199219 15.601562 17.039062 15.601562 16.800781 15.601562 16.558594 15.441406 16.398438 15.199219 16.398438zM15.199219 18L7.199219 18C6.960938 18 6.800781 18.160156 6.800781 18.398438 6.800781 18.640625 6.960938 18.800781 7.199219 18.800781L15.199219 18.800781C15.441406 18.800781 15.601562 18.640625 15.601562 18.398438 15.601562 18.160156 15.441406 18 15.199219 18zM15.199219 18"/>
</svg>

<svg xmlns="http://www.w3.org/2000/svg" width="32" height="32" viewBox="0 0 24 24">
    <path d="M18.8 2a.38.38 0 0 0-.187-.348L17.078.122a.385.385 0 0 0-.558 0 .385.385 0 0 0 0 .558l.921.922H5.601c-.242 0-.402.16-.402.398 0 .238.16.398.403.398h11.84l-.922.922a.385.385 0 0 0 0 .559c.082.082.16.121.28.121.122 0 .2-.04.278-.121l1.535-1.531A.38.38 0 0 0 18.801 2zm0 0"/>
    <path d="M11.2 3.2c-3.321 0-6 2.679-6 6V18c0 3.32 2.679 6 6 6 3.32 0 6-2.68 6-6V9.2c0-3.321-2.68-6-6-6zM16.397 18a5.19 5.19 0 0 1-5.199 5.2A5.19 5.19 0 0 1 6 18V9.2A5.19 5.19 0 0 1 11.2 4a5.19 5.19 0 0 1 5.198 5.2zm0 0"/>
    <path d="M11.2 4.8a4.388 4.388 0 0 0-4.4 4.4v4.402h8.802V9.199a4.389 4.389 0 0 0-4.403-4.398zm3.6 8H7.603V9.2c0-2 1.597-3.598 3.597-3.598s3.602 1.597 3.602 3.597zm0 0M15.2 16.398h-8c-.24 0-.4.16-.4.403 0 .238.16.398.4.398h8c.241 0 .402-.16.402-.398 0-.242-.16-.403-.403-.403zm0 0M15.2 18h-8c-.24 0-.4.16-.4.398 0 .243.16.403.4.403h8c.241 0 .402-.16.402-.403 0-.238-.16-.398-.403-.398zm0 0"/>
</svg>
